gama.ui.shared/icons_svg/dark/viewers/delete.row.svg

<svg height="25" viewBox="-778.483 -2925.879 25 25" width="25" xmlns="http://www.w3.org/2000/svg"><g fill="none"><path d="m-753.9828-2921.539v16.32c0 2.1207-1.7192 3.84-3.84 3.84h-16.32c-2.1207 0-3.84-1.7193-3.84-3.84v-16.32c0-2.121 1.7193-3.84 3.84-3.84h16.32c2.1208 0 3.84 1.719 3.84 3.84z" fill="#666"/><path d="m-753.9828-2921.539v16.32c0 2.1207-1.7192 3.84-3.84 3.84h-16.32c-2.1207 0-3.84-1.7193-3.84-3.84v-16.32c0-2.121 1.7193-3.84 3.84-3.84h16.32c2.1208 0 3.84 1.719 3.84 3.84z" stroke="#fff" stroke-linecap="round" stroke-linejoin="round" stroke-width=".25"/><path d="m-760.4828-2915.379h-11c-.83 0-1.5.67-1.5 1.5v1c0 .83.67 1.5 1.5 1.5h11c.83 0 1.5-.67 1.5-1.5v-1c0-.83-.67-1.5-1.5-1.5zm0-1c1.38 0 2.5 1.12 2.5 2.5v1c0 1.38-1.12 2.5-2.5 2.5h-11c-1.38 0-2.5-1.12-2.5-2.5v-1c0-1.38 1.12-2.5 2.5-2.5z" fill="#e3e6e1"/><path d="m-765.1928-2913.3258 4.1317 4.1418c.1996.1995.1996.509 0 .7085s-.509.1995-.7086 0l-4.1417-4.1417-4.1417 4.1417c-.1996.1995-.509.1995-.7086 0s-.1996-.509 0-.7085l4.1417-4.1418-4.1217-4.1417c-.1996-.1995-.1996-.509 0-.7085.1996-.1997.509-.1997.7086 0l4.1417 4.1416 4.1317-4.1316c.1896-.1997.509-.1997.6986 0 .1996.1895.1996.509 0 .6985l-4.1417 4.1417z" fill="#fc6d7d"/></g></svg>

<?xml version="1.0" encoding="UTF-8" standalone="no"?>
<!DOCTYPE svg PUBLIC "-//W3C//DTD SVG 1.1//EN" "http://www.w3.org/Graphics/SVG/1.1/DTD/svg11.dtd">
<svg xmlns:dc="http://purl.org/dc/elements/1.1/" version="1.1" xmlns="http://www.w3.org/2000/svg" xmlns:xl="http://www.w3.org/1999/xlink" viewBox="-778.4828 -2925.879 25 25" width="25" height="25">
  <defs/>
  <g id="SOURCES" stroke="none" stroke-dasharray="none" fill-opacity="1" stroke-opacity="1" fill="none">
    <title>SOURCES</title>
    <g id="SOURCES_Dark">
      <title>Dark</title>
      <g id="Graphic_10994">
        <path d="M -753.9828 -2921.539 L -753.9828 -2905.219 C -753.9828 -2903.0983 -755.702 -2901.379 -757.8228 -2901.379 L -774.1428 -2901.379 C -776.2635 -2901.379 -777.9828 -2903.0983 -777.9828 -2905.219 L -777.9828 -2921.539 C -777.9828 -2923.66 -776.2635 -2925.379 -774.1428 -2925.379 L -757.8228 -2925.379 C -755.702 -2925.379 -753.9828 -2923.66 -753.9828 -2921.539 Z" fill="#666"/>
        <path d="M -753.9828 -2921.539 L -753.9828 -2905.219 C -753.9828 -2903.0983 -755.702 -2901.379 -757.8228 -2901.379 L -774.1428 -2901.379 C -776.2635 -2901.379 -777.9828 -2903.0983 -777.9828 -2905.219 L -777.9828 -2921.539 C -777.9828 -2923.66 -776.2635 -2925.379 -774.1428 -2925.379 L -757.8228 -2925.379 C -755.702 -2925.379 -753.9828 -2923.66 -753.9828 -2921.539 Z" stroke="white" stroke-linecap="round" stroke-linejoin="round" stroke-width=".25"/>
      </g>
      <g id="Graphic_10993">
        <path d="M -760.4828 -2915.379 L -771.4828 -2915.379 C -772.3128 -2915.379 -772.9828 -2914.709 -772.9828 -2913.879 L -772.9828 -2912.879 C -772.9828 -2912.049 -772.3128 -2911.379 -771.4828 -2911.379 L -760.4828 -2911.379 C -759.6528 -2911.379 -758.9828 -2912.049 -758.9828 -2912.879 L -758.9828 -2913.879 C -758.9828 -2914.709 -759.6528 -2915.379 -760.4828 -2915.379 Z M -760.4828 -2916.379 C -759.1028 -2916.379 -757.9828 -2915.259 -757.9828 -2913.879 L -757.9828 -2912.879 C -757.9828 -2911.499 -759.1028 -2910.379 -760.4828 -2910.379 L -771.4828 -2910.379 C -772.8628 -2910.379 -773.9828 -2911.499 -773.9828 -2912.879 L -773.9828 -2913.879 C -773.9828 -2915.259 -772.8628 -2916.379 -771.4828 -2916.379 Z" fill="#e3e6e1"/>
      </g>
      <g id="Graphic_10991">
        <path d="M -765.1928 -2913.3258 L -761.0611 -2909.184 C -760.8615 -2908.9845 -760.8615 -2908.675 -761.0611 -2908.4755 C -761.2607 -2908.276 -761.5701 -2908.276 -761.7697 -2908.4755 L -765.9114 -2912.6172 L -770.0531 -2908.4755 C -770.2527 -2908.276 -770.5621 -2908.276 -770.7617 -2908.4755 C -770.9613 -2908.675 -770.9613 -2908.9845 -770.7617 -2909.184 L -766.62 -2913.3258 L -770.7417 -2917.4675 C -770.9413 -2917.667 -770.9413 -2917.9765 -770.7417 -2918.176 C -770.5421 -2918.3757 -770.2327 -2918.3757 -770.0331 -2918.176 L -765.8914 -2914.0344 L -761.7597 -2918.166 C -761.5701 -2918.3657 -761.2507 -2918.3657 -761.0611 -2918.166 C -760.8615 -2917.9765 -760.8615 -2917.657 -761.0611 -2917.4675 L -765.2028 -2913.3258 Z" fill="#fc6d7d"/>
      </g>
    </g>
  </g>
</svg>
